X:372
T:Tink a Tink. RH.372
R:hornpipe
S:Rev.R.Harrison’s MS,c1815,Cumbria
N:Not sure whether bars 9 to 12 should be repeated, or
N:might they be a kind of ground bass? PJH.
O:England
A:Temple Sowerby,Cumbria
Z:vmp.Simon Wilson. Review PJH, 2008.
M:2/4
L:1/8
Q:1/2=100
K:G
g2d’>b|g2d’>b|c’>d’c’>b|a>gfz|\
g2d’>b|g2d’>b|c’>ag>f|g2z2|\
c2A2|Bd gz|c2A2|G2z2|!
G2d>B|G2d>B|c>dc>B|A>GF2|\
G2d>B|G2d>B|c>AG>F|G2z2|!
G2d>B|G2d>B|c>dc>B|A>GF2|\
G2d>B|G2d>B|c>AG>F|G2z2||!
G2g>f|e>cc>B|A>B c>d|B2G2|\
d2g>f|e>dc>B|A>cF>A|G2z2|!
d2g>f|e>dc>B|A>B c>d|B2G2|\
d2g>f|e>dc>B|A>cF>A|G2z2|]

